src/components/Icon/svg/krOwnershipPending24.svg

<?xml version="1.0" encoding="UTF-8"?>
<svg width="24px" height="24px" viewBox="0 0 24 24" version="1.1" xmlns="http://www.w3.org/2000/svg" xmlns:xlink="http://www.w3.org/1999/xlink">
    <!-- Generator: Sketch 48.2 (47327) - http://www.bohemiancoding.com/sketch -->
    <title>kr-pending-icon-24px</title>
    <desc>Created with Sketch.</desc>
    <defs></defs>
    <g id="Page-1" stroke="none" stroke-width="1" fill="none" fill-rule="evenodd">
        <g id="kr-pending-icon-24px" fill="#000000" fill-rule="nonzero">
            <path d="M13.8095238,1 L14,0.183673469 C12.6666667,-0.0612244898 11.3333333,-0.0612244898 10,0.183673469 L10.1904762,1 C11.3333333,0.755102041 12.6666667,0.755102041 13.8095238,1 Z M10.1904762,23 L10,23.8333333 C10.6666667,23.9166667 11.3333333,24 12,24 C12.6666667,24 13.3333333,23.9166667 14,23.8333333 L13.8095238,23 C12.6666667,23.25 11.3333333,23.25 10.1904762,23 Z M23.8333333,10 L23,10.1904762 C23.0833333,10.7619048 23.1666667,11.4285714 23.1666667,12 C23.1666667,12.5714286 23.0833333,13.2380952 23,13.8095238 L23.8333333,14 C23.9166667,13.3333333 24,12.6666667 24,12 C24,11.3333333 23.9166667,10.6666667 23.8333333,10 Z M0.166666667,10 C0.0833333333,10.6666667 0,11.3333333 0,12 C0,12.6666667 0.0833333333,13.3333333 0.166666667,14 L1,13.8095238 C0.916666667,13.2380952 0.833333333,12.5714286 0.833333333,12 C0.833333333,11.4285714 0.916666667,10.7619048 1,10.1904762 L0.166666667,10 Z M18.6857143,2 L18,2.91428571 C18.5714286,3.37142857 19.1428571,3.82857143 19.7142857,4.28571429 C20.2857143,4.85714286 20.7428571,5.42857143 21.0857143,6 L22,5.31428571 C21.5428571,4.74285714 21.0857143,4.05714286 20.5142857,3.48571429 C19.9428571,2.91428571 19.2571429,2.45714286 18.6857143,2 Z M2.91428571,18 L2,18.5142857 C2.45714286,18.9428571 2.91428571,19.4571429 3.48571429,19.8857143 C4.05714286,20.3142857 4.62857143,20.7428571 5.31428571,21 L6,20.3142857 C5.42857143,19.9714286 4.85714286,19.6285714 4.28571429,19.2857143 C3.82857143,18.8571429 3.25714286,18.4285714 2.91428571,18 Z M19.7142857,19.2857143 C19.1428571,19.7142857 18.5714286,20.0571429 18,20.3142857 L18.6857143,21 C19.3714286,20.6571429 19.9428571,20.3142857 20.5142857,19.8857143 C21.0857143,19.4571429 21.6571429,19.0285714 22,18.5142857 L21.0857143,18 C20.7428571,18.4285714 20.1714286,18.8571429 19.7142857,19.2857143 Z M4.28571429,4.28571429 C4.85714286,3.71428571 5.42857143,3.25714286 6,2.91428571 L5.31428571,2 C4.74285714,2.45714286 4.05714286,2.91428571 3.48571429,3.48571429 C2.91428571,4.05714286 2.34285714,4.62857143 2,5.31428571 L2.91428571,6 C3.25714286,5.42857143 3.82857143,4.85714286 4.28571429,4.28571429 Z M14.8930662,12.1925926 C14.6122325,12.0888889 14.3313989,11.8814815 14.0505652,11.7777778 C13.7697315,11.6740741 13.5825091,11.6740741 13.3016754,11.5703704 C13.5825091,11.4666667 13.8633428,11.2592593 14.1441764,10.9481481 C14.9866774,10.2222222 15.4547336,9.08148148 15.4547336,7.94074074 C15.4547336,6.8 14.9866774,5.65925926 14.1441764,4.93333333 C13.5825091,4.31111111 12.8336193,4 11.9911183,4 C11.8975071,4 11.8975071,4 11.8038958,4 C11.0550061,4 10.3061163,4.31111111 9.74444893,4.72592593 C8.8083367,5.45185185 8.24666936,6.6962963 8.24666936,7.94074074 C8.24666936,9.18518519 8.8083367,10.4296296 9.74444893,11.1555556 C10.0252826,11.362963 10.212505,11.4666667 10.4933387,11.6740741 C10.212505,11.7777778 10.0252826,11.7777778 9.83806016,11.8814815 C9.65083771,11.9851852 9.46361526,12.0888889 9.27639282,12.1925926 C7.2169459,13.2296296 6,15.4074074 6,18 L6.93611223,18 C6.93611223,15.8222222 7.96583569,14.0592593 9.74444893,13.1259259 C9.93167138,13.0222222 10.1188938,12.9185185 10.212505,12.8148148 C10.7741724,12.6074074 11.3358397,12.5037037 11.8975071,12.4 C12.4591744,12.4 13.0208417,12.5037037 13.5825091,12.7111111 C13.8633428,12.8148148 14.0505652,12.9185185 14.3313989,13.0222222 C15.9227897,13.9555556 17.0461244,15.8222222 17.0461244,17.8962963 L17.9822366,17.8962963 C18.169459,15.5111111 16.8589019,13.2296296 14.8930662,12.1925926 Z M12.0847295,10.8444444 C11.429451,10.8444444 10.9613948,10.637037 10.4933387,10.3259259 C9.83806016,9.80740741 9.37000404,8.87407407 9.37000404,7.94074074 C9.37000404,7.00740741 9.74444893,6.17777778 10.4933387,5.55555556 C10.9613948,5.24444444 11.429451,5.03703704 11.8975071,5.03703704 L11.9911183,5.03703704 C12.5527856,5.03703704 13.114453,5.24444444 13.5825091,5.76296296 C14.1441764,6.28148148 14.5186213,7.11111111 14.5186213,7.94074074 C14.5186213,8.87407407 14.1441764,9.6 13.5825091,10.2222222 C13.2080642,10.637037 12.6463969,10.8444444 12.0847295,10.8444444 Z" id="Shape"></path>
        </g>
    </g>
</svg>

<?xml version="1.0" encoding="UTF-8"?>
<svg width="24px" height="24px" viewBox="0 0 24 24" version="1.1" xmlns="http://www.w3.org/2000/svg" xmlns:xlink="http://www.w3.org/1999/xlink">
    <!-- Generator: Sketch 48.2 (47327) - http://www.bohemiancoding.com/sketch -->
    <title>kr-pending-icon-24px</title>
    <desc>Created with Sketch.</desc>
    <defs></defs>
    <g id="Page-1" stroke="none" stroke-width="1" fill="none" fill-rule="evenodd">
        <g id="kr-pending-icon-24px" fill="#000000" fill-rule="nonzero">
            <path d="M13.8095 1L14 .1837c-1.3333-.245-2.6667-.245-4 0L10.1905 1c1.1428-.2449 2.4762-.2449 3.619 0zm-3.619 22L10 23.8333c.6667.0834 1.3333.1667 2 .1667.6667 0 1.3333-.0833 2-.1667L13.8095 23c-1.1428.25-2.4762.25-3.619 0zm13.6428-13L23 10.1905c.0833.5714.1667 1.238.1667 1.8095 0 .5714-.0834 1.2381-.1667 1.8095l.8333.1905c.0834-.6667.1667-1.3333.1667-2 0-.6667-.0833-1.3333-.1667-2zM.1667 10C.0833 10.6667 0 11.3333 0 12c0 .6667.0833 1.3333.1667 2L1 13.8095C.9167 13.2381.8333 12.5715.8333 12c0-.5714.0834-1.2381.1667-1.8095L.1667 10zm18.519-8L18 2.9143l1.7143 1.3714c.5714.5714 1.0286 1.1429 1.3714 1.7143L22 5.3143c-.4571-.5714-.9143-1.2572-1.4857-1.8286C19.9429 2.9143 19.257 2.4571 18.6857 2zM2.9143 18L2 18.5143c.4571.4286.9143.9428 1.4857 1.3714S4.6286 20.743 5.3143 21L6 20.3143l-1.7143-1.0286c-.4571-.4286-1.0286-.8571-1.3714-1.2857zm16.8 1.2857c-.5714.4286-1.1429.7714-1.7143 1.0286l.6857.6857c.6857-.3429 1.2572-.6857 1.8286-1.1143.5714-.4286 1.1428-.8571 1.4857-1.3714L21.0857 18c-.3428.4286-.9143.8571-1.3714 1.2857zm-15.4286-15C4.8571 3.7143 5.4286 3.2571 6 2.9143L5.3143 2c-.5714.4571-1.2572.9143-1.8286 1.4857C2.9143 4.0571 2.343 4.6286 2 5.3143L2.9143 6c.3428-.5714.9143-1.1429 1.3714-1.7143zm10.6074 7.9069c-.2809-.1037-.5617-.3111-.8425-.4148-.2809-.1037-.468-.1037-.749-.2074.281-.1037.5617-.3111.8426-.6223.8425-.7259 1.3105-1.8666 1.3105-3.0074 0-1.1407-.468-2.2814-1.3105-3.0074C13.5825 4.3111 12.8336 4 11.9912 4h-.1873c-.7489 0-1.4978.3111-2.0595.726-.936.7259-1.4977 1.9703-1.4977 3.2147 0 1.2445.5616 2.489 1.4977 3.2149.2809.2074.4681.311.749.5185-.2809.1037-.4681.1037-.6553.2074l-.5617.311C7.2169 13.2297 6 15.4076 6 18h.9361c0-2.1778 1.0297-3.9407 2.8083-4.874.1873-.1038.3745-.2075.4681-.3112.5617-.2074 1.1233-.3111 1.685-.4148.5617 0 1.1233.1037 1.685.3111.2808.1037.468.2074.7489.3111 1.5914.9334 2.7147 2.8 2.7147 4.8741h.9361c.1873-2.3852-1.1233-4.6667-3.0891-5.7037zm-2.8084-1.3482c-.6552 0-1.1233-.2074-1.5914-.5185C9.8381 9.8074 9.37 8.8741 9.37 7.9407c0-.9333.3744-1.763 1.1233-2.3851.468-.3112.9362-.5186 1.4042-.5186h.0936c.5617 0 1.1234.2074 1.5914.726.5617.5185.9361 1.3481.9361 2.1777 0 .9334-.3744 1.6593-.936 2.2815-.3745.4148-.9362.6222-1.4979.6222z" id="Shape"></path>
        </g>
    </g>
</svg>
